X: 35961
T: Sarah's Cottage
R: jig
M: 6/8
K: Gmajor
|:d|g3 Bcd|dec B2D|DGG D3|BAG A2d|
g3 Bcd|dec B2D|DGG BcA|AGF G2:|
|:D|A3 ABc|BDD Bcd|edc efg|dec B2D|
A3 ABc|BDD Bcd|dec BcA|AGF G2:|

